X:22
T:The Rookery
B:Terry "Cuz" Teahan "Sliabh Luachra on Parade" 1980
Z:Patrick Cavanagh
M:6/8
L:1/8
R:Jig
K:G
| EDE BAB | EBB AFD | EDE BAB | eBB AFD | 
EDE BAB | EBB AFD | BAF ABd | edB [1]AFD :| [2]ABd
|: e3 efa | baf fed | Bee e2d | f/g/af def | 
bbb a2f | efe def | g2f fed | BAB dBA :| 
|: g3 f3 | efe d2e | fff def | edB dBA | 
gfe fed | edB d2e | fff def | edB AFD :| 
|: Bee fee | aee fee | Bee fee | f/g/af def | 
bbb a2f | efe def | g2f fed | BAB dBA :|| 

